X:1
T:Title
%%score { 1 | 2 }
L:1/8
Q:1/4=87
M:6/8
K:Ab
V:1 treble nm="Grand Piano"
V:2 bass 
V:1
 AGA [GB]3 | [GB][FA][GB] c3 | cBc [EBd]2 [EAc] |[M:5/8] [EGB]-[EGB]- [EGB]3 |[M:1/8] [G,E] | %5
w: J.~H.~Fillmore * * *|||||
[M:3/4] [Ec][DB] [CA][CA] [EG][DF] | [CE]2 [A,C] [CE]2 [CE] | [Ec][DB] [CA][CA] [EG][DF] | %8
w: |||
 [CE]2 [A,C] [CE]2 [CE] | FF F [DG]2 [DG] | [CA]4- [CA][CA] | [FB][FB] [FB] [CEA]2 [B,EG] | %12
w: ||||
 [CEA]6 |] %13
w: |
V:2
 [A,CE][A,B,E][A,CE] [E,E]3 | [E,E][E,E][E,E][K:treble] [A,EA]3 | %2
 [A,EA][A,EG][A,EA] G,2[K:bass] A, |[M:5/8] E,-E,- E,3 |[M:1/8] E, | %5
[M:3/4] [A,,A,][A,,E,] [A,,E,][A,,E,] [A,,F,][A,,G,] | [A,,A,]2 [A,,E,] [A,,A,]2 [A,,A,] | %7
 [A,,A,][A,,E,] [A,,E,][A,,E,] [A,,F,][A,,G,] | [A,,A,]2 [A,,E,] [A,,A,]2 [A,,A,] | %9
 [D,A,D][D,A,D] [D,A,D] [B,,B,]2 [B,,B,] | [F,A,]4- [F,A,][F,A,] | [D,D][D,D] [D,D] E,2 E, | %12
 A,,6 |] %13

